!!!COM: Palestrina, Giovanni Perluigi da
!!!OPR: Missa In majoribus duplicibus
!!!OMD: Credo
!!!OTL: Crucifixus
**kern	**kern	**kern
*Ibass	*Itenor	*Icalto
!Bassus	!Tenor	!Altus
*clefF4	*clefGv2	*clefG2
*k[]	*k[]	*k[]
*?:X	*?:X	*?:X
*M4/2	*M4/2	*M4/2
=113	=113	=113
1r	1.e	0r
[1A	.	.
.	2c	.
=114	=114	=114
2A]	2e	0r
2F	2f	.
2A	2e	.
2B-	2d	.
=115	=115	=115
2A	2.e	0r
2G	.	.
.	4d	.
2A	2c	.
2F	2A	.
=116	=116	=116
2.E	2c	0r
.	4B	.
4F	4A	.
2G	4B	.
.	4c	.
2F	[2d	.
=117	=117	=117
1E	4d]	1r
.	8c#	.
.	8B	.
.	2c#	.
1D	2d	[1a
.	[2f	.
=118	=118	=118
1.d	2f]	2a]
.	2d	2f
.	2f	2a
2G	2g	2b-
=119	=119	=119
2A	2f	2a
2c	2e	2g
2.F	2f	2a
.	2d	2f
4G	.	.
=120	=120	=120
2.A	2.c	2.e
8G	4d	4f
8F	.	.
2E	2e	2g
2F	4d	[2a
.	4c	.
=121	=121	=121
2G	2B	4a]
.	.	4g
2C	2c	1g
1D	1A	.
.	.	2f#
=122	=122	=122
1E	1G	4g
.	.	4f
.	.	4e
.	.	4d
1C	2r	2.e
.	2c	.
.	.	8d
.	.	8c
=123	=123	=123
1G	2d	1B
.	2e	.
2A	1f	1r
2B	.	.
=124	=124	=124
4c	1e	2r
4B	.	.
4A	.	2c
4G	.	.
2F	2d	2d
2E	[2c	2e
=125	=125	=125
1D	2c]	1f
.	2B	.
4C	2c	1e
4D	.	.
4E	4B	.
4F	4A	.
=126	=126	=126
2G	2B	2d
2A	2c	1c
1G	1d	.
.	.	2B
=127	=127	=127
1C	2r	2c
.	1e	1g
2r	.	.
[2A	2c	2e
=128	=128	=128
2A]	1.f	1.a
2F	.	.
1c	.	.
.	2e	2g
=129	=129	=129
2d	2d	2f
2.c	2.e-	2.g
4d	4d	4f
2B-	[2d	2d
=130	=130	=130
2.A	2d]	1e
.	2c#	.
4G	.	.
2F#	1d	[1d
2G	.	.
=131	=131	=131
2.D	2r	1d]
.	2d	.
4E	.	.
1F	2c	2r
.	2A	2a
=132	=132	=132
1E	2B	2g
.	2c	2e
1r	2d	2f
.	2B	2g
=133	=133	=133
0r	4A	1a
.	4B	.
.	4c	.
.	4d	.
.	2e	2g
.	[2f	2a
=134	=134	=134
1r	4f]	1f
.	4e	.
.	2.d	.
1A	.	[1e
.	4c	.
.	4c	.
.	8B	.
.	8A	.
=135	=135	=135
2G	1B	1e]
2E	.	.
2F	2A	2.d
2G	[2d	.
.	.	4e
=136	=136	=136
1A	2d]	2f
.	2c	2.e
2G	2B	.
.	.	4d
2A	[2c	4c
.	.	4B
=137	=137	=137
1F	2c]	2A
.	4B	1a
.	4A	.
1E	1B	.
.	.	2g#
=138	=138	=138
1r	2A	1a
.	2A	.
1E	2B	1r
.	2c	.
=139	=139	=139
2F	2.d	0r
2G	.	.
.	4B	.
1A	4c	.
.	4d	.
.	[2e	.
=140	=140	=140
2G	4e]	2r
.	4d	.
1A	4c	2e
.	4B	.
.	2c	2f
[2G	2B	2g
=141	=141	=141
2G]	1A	1a
2F#	.	.
2G	2r	2g
2F	2A	[2a
=142	=142	=142
1E	2B	2a]
.	2c	1g
1D	2.d	.
.	.	2f
.	4c	.
=143	=143	=143
2E	2B	1.g
2C	2.e	.
1D	.	.
.	4d	.
.	[2d	2f
=144	=144	=144
1A	2d]	0e
.	4c	.
.	4B	.
2r	2.c	.
2A	.	.
.	4A	.
=145	=145	=145
1G	1B	1r
1F	1A	1a
=146	=146	=146
2E	2r	1g
2C	2e	.
4D	1d	1f
4E	.	.
4F	.	.
4G	.	.
=147	=147	=147
4A	1c	1e
4B	.	.
2c	.	.
2G	1B	1d
2G	.	.
=148	=148	=148
4D	1A	1f
4E	.	.
4F	.	.
4G	.	.
2A	1c	2e
2A	.	2f#
=149	=149	=149
4G	1B	[0g
4F	.	.
4E	.	.
4D	.	.
2C	1c	.
[2c	.	.
=150	=150	=150
4c]	2d	1g]
8B	.	.
8A	.	.
2B	2d	.
1c	2e	2r
.	2c	2g
=151	=151	=151
0r	2.f	2a
.	.	2f
.	4d	.
.	2d	2.b-
.	[2g	.
.	.	4b-
=152	=152	=152
1r	4g]	1a
.	4f	.
.	2f	.
2r	2e	2.g
2G	2d	.
.	.	4f
=153	=153	=153
2A	1c	2e
2F	.	1a
2.B-	2r	.
.	2d	2g
4B-	.	.
=154	=154	=154
2.A	2e	0a
.	2c	.
4G	.	.
4F	2.f	.
4E	.	.
2D	.	.
.	4f	.
=155	=155	=155
2.G	2e	2r
.	2.d	2d
4F	.	.
2E	.	2e
.	4c	.
2F	[2c	2c
=156	=156	=156
1D	4c]	2.f
.	8B	.
.	8A	.
.	2B	.
.	.	4f
2C	1c	1e
[2c	.	.
=157	=157	=157
2c]	2G	1d
2B	2d	.
1c	2e	2c
.	2c	2g
=158	=158	=158
1r	2.f	2a
.	.	2f
.	4f	.
1G	2d	2.b-
.	2g	.
.	.	4b-
=159	=159	=159
2A	4f	1a
.	4e	.
2F	2.f	.
2.B-	.	4d
.	4e	4e
.	2d	4f
4B-	.	4g
=160	=160	=160
1A	4c	4a
.	4d	4b
.	4e	1cc
.	4f#	.
1G	2g	.
.	2d	2b-
=161	=161	=161
1F	2.f	1a
.	4f	.
1G	2e	2.g
.	2d	.
.	.	4f
=162	=162	=162
0A	2c#	2e
.	1d	2d
.	.	1e
.	2c#	.
=163	=163	=163
0D	0d	0f#
*-	*-	*-
!!!CDT: 1525/^1526/-1594/2/2
!!!OCY: Italia
!!!AGN: Mass (Paraphrase)
!!!AST: renaissance, vocal
!!!ASW: Gregorian Mass
!!!PWK: Masses, Book 7
!!!RNB: Cadence finals: E,C,G,D,F
!!!YOR: Le Opere Complete, v. 23, p. 149
!!!YOO: Rome, Italy: Fratelli Scalera
!!!END: 1992//
!!!EED: John Miller
!!!YEC: Copyright 2000, John Miller
!!!YEN: United States of America
!!!YEM: Rights to all derivative electronic formats reserved.
!!!YEM: Refer to licensing agreement for further details.
!!!YEM: This file must be accompanied by the licensing agreement.
!!!YEM: A copy of the licensing agreement may be found at http://www.music-cog.ohio-state.edu/HumdrumDatabases/Palestrina/license.txt
!!!EMD: converted to Humdrum by Bret Aarden
